src/images/illustrator.inline.svg

<svg width="144" height="144" viewBox="0 0 144 144" fill="none" xmlns="http://www.w3.org/2000/svg" color-interpolation-filters="sRGB">
  <g class="soft-light fill-madison">
    <rect class="fill-opacity-40" width="132" height="132" rx="12"/>
    <rect class="fill-opacity-20" x="12" y="12" width="132" height="132" rx="20"/>
  </g>
  <path d="M120 128H8C3.6 128 0 124.4 0 120V8C0 3.6 3.6 0 8 0H120C124.4 0 128 3.6 128 8V120C128 124.4 124.4 128 120 128Z" fill="#D89F31"/>
  <path d="M120 126H8C4.70457 126 2 123.295 2 120V8C2 4.70457 4.70457 2 8 2H120C123.295 2 126 4.70457 126 8V120C126 123.295 123.295 126 120 126Z" fill="#D89F31" stroke="#D89F31" stroke-width="4"/>
  <path d="M80.8 46.49C80.8 43.1 83.55 40 87.39 40C91.23 40 93.92 43.04 93.92 46.49C93.92 50.07 91.23 53 87.39 53C83.55 53 80.8 50.01 80.8 46.49ZM81 56.22H94V88H81V56.22Z" fill="#B27C26"/>
  <path d="M63.7101 80H49.1201L46.8201 87.86H34.0801L50.5901 42H62.2401L78.6901 88H66.0201L63.7101 80ZM60.5801 69.05L56.4801 55.93H56.3501L52.2501 69.05H60.5801Z" fill="#B27C26"/>
  <path opacity="0.2" d="M0 8C0 3.58172 3.58172 0 8 0H120C124.418 0 128 3.58172 128 8H0Z" fill="#FFDC7F"/>
  <path opacity="0.4" d="M0 120H128C128 124.418 124.418 128 120 128H8C3.58172 128 0 124.418 0 120Z" fill="#6E5C3C"/>
</svg>

<svg xmlns="http://www.w3.org/2000/svg" width="144" height="148" fill="none" color-interpolation-filters="sRGB">
  <g class="fill-shadow">
    <path d="M124 8H32c-11.046 0-20 8.954-20 20v100c0 11.046 8.954 20 20 20h92c11.046 0 20-8.954 20-20V28c0-11.046-8.954-20-20-20z" class="opacity-20"/>
    <path d="M120 8H12C5.373 8 0 13.373 0 20v100c0 6.627 5.373 12 12 12h108c6.627 0 12-5.373 12-12V20c0-6.627-5.373-12-12-12z" class="opacity-40"/>
  </g>
  <path fill="#D89F31" d="M120 128H8c-4.4 0-8-3.6-8-8V8c0-4.4 3.6-8 8-8h112c4.4 0 8 3.6 8 8v112c0 4.4-3.6 8-8 8z"/>
  <path fill="#D89F31" stroke="#D89F31" stroke-width="4" d="M120 126H8c-3.295 0-6-2.705-6-6V8c0-3.295 2.705-6 6-6h112c3.295 0 6 2.705 6 6v112c0 3.295-2.705 6-6 6z"/>
  <path fill="#B27C26" d="M80.8 46.49c0-3.39 2.75-6.49 6.59-6.49s6.53 3.04 6.53 6.49c0 3.58-2.69 6.51-6.53 6.51-3.84 0-6.59-2.99-6.59-6.51zm.2 9.73h13V88H81V56.22zM63.71 80H49.12l-2.3 7.86H34.08L50.59 42h11.65l16.45 46H66.02l-2.31-8zm-3.13-10.95l-4.1-13.12h-.13l-4.1 13.12h8.33z"/>
  <path fill="#FFDC7F" d="M0 8a8 8 0 018-8h112a8 8 0 018 8H0z" opacity=".2"/>
  <path fill="#6E5C3C" d="M0 120h128a8 8 0 01-8 8H8a8 8 0 01-8-8z" opacity=".4"/>
</svg>
